X:47
T:T.B. Jobe's Jubilee
S:American Veteran Fifer, #47
C:By A.F. Hopkins, Fife Major N.A. C.W.M.
M:2/4
L:1/16
Q:1/8=180
K:D 
%%MIDI program 72
%%MIDI transpose 8
%%MIDI ratio 3 1
|: cd | ecec dedB | ecec ddef | gfge fafd | efge a2>g2 |
edec dedB | ecec ddcd | eeaf gedB | A6 :|
|: cd | e2a2- abab | ea2b agef | gaga efga | efga gfed |
e2a2- abab | ea2b agef | geag edBG | A6 :|



